public/images/home/rush.svg

<svg width="555" height="147" viewBox="0 0 555 147" fill="none" xmlns="http://www.w3.org/2000/svg">
<path d="M130.845 137.841C131.251 138.652 131.454 139.531 131.454 140.478C131.454 141.425 130.98 142.372 130.034 143.319C129.222 144.13 128.208 144.536 126.99 144.536H85.399C81.2061 144.536 78.2981 142.71 76.675 139.058L59.2269 100.307H50.9087V139.058C50.9087 140.546 50.3676 141.831 49.2856 142.913C48.2035 143.995 46.9186 144.536 45.4308 144.536H5.66538C4.17756 144.536 2.89263 143.995 1.81058 142.913C0.728526 141.831 0.1875 140.546 0.1875 139.058V7.99455C0.1875 6.50673 0.728526 5.22179 1.81058 4.13974C2.89263 3.05769 4.17756 2.51666 5.66538 2.51666H65.7192C85.1961 2.51666 100.412 6.91249 111.368 15.7042C122.324 24.3606 127.802 36.8718 127.802 53.2378C127.802 69.4686 120.498 82.2503 105.89 91.583L130.845 137.841ZM50.9087 40.2532V61.759H65.7192C68.6949 61.759 70.9942 60.8122 72.6173 58.9186C74.2404 56.8897 75.0519 54.3875 75.0519 51.4119C75.0519 48.4362 74.2404 45.8663 72.6173 43.7022C71.1295 41.4029 68.8301 40.2532 65.7192 40.2532H50.9087ZM224.819 2.51666H264.584C266.072 2.51666 267.357 3.05769 268.439 4.13974C269.521 5.22179 270.062 6.50673 270.062 7.99455V89.5542C270.062 108.49 264.178 122.76 252.411 132.363C240.644 141.831 224.616 146.565 204.327 146.565C184.174 146.565 168.146 141.831 156.244 132.363C144.476 122.895 138.593 108.625 138.593 89.5542V7.99455C138.593 6.50673 139.134 5.22179 140.216 4.13974C141.298 3.05769 142.583 2.51666 144.071 2.51666H183.836C185.324 2.51666 186.609 3.05769 187.691 4.13974C188.773 5.22179 189.314 6.50673 189.314 7.99455V90.1628C189.314 100.578 194.318 105.785 204.327 105.785C214.336 105.785 219.341 100.578 219.341 90.1628V7.99455C219.341 6.50673 219.882 5.22179 220.964 4.13974C222.046 3.05769 223.331 2.51666 224.819 2.51666ZM280.574 47.1513C280.574 33.3551 286.255 22.1288 297.616 13.4724C309.113 4.81602 324.127 0.487817 342.657 0.487817C361.322 0.487817 376.538 5.01891 388.306 14.0811C400.208 23.1433 406.16 32.6112 406.16 42.4849C406.16 43.7022 405.686 44.7843 404.739 45.7311C403.928 46.5426 402.981 46.9484 401.899 46.9484H361.322C358.211 46.9484 355.371 45.7987 352.801 43.4994C350.231 41.2 346.782 40.0503 342.454 40.0503C335.962 40.0503 332.715 41.9439 332.715 45.7311C332.715 47.7599 334.271 49.4506 337.382 50.8032C340.628 52.1558 346.579 53.3731 355.236 54.4551C375.389 57.025 389.726 61.759 398.247 68.657C406.904 75.4199 411.232 85.767 411.232 99.6984C411.232 113.495 404.875 124.788 392.161 133.58C379.582 142.237 363.08 146.565 342.657 146.565C322.233 146.565 306.205 142.372 294.573 133.986C282.941 125.6 277.125 115.388 277.125 103.35C277.125 102.133 277.531 101.119 278.342 100.307C279.289 99.3602 280.371 98.8869 281.588 98.8869H320.137C322.977 98.8869 326.088 100.239 329.469 102.945C332.986 105.65 337.787 107.002 343.874 107.002C354.018 107.002 359.09 105.109 359.09 101.321C359.09 98.8869 357.264 97.0609 353.612 95.8436C349.961 94.491 343.062 93.1385 332.918 91.7859C298.022 87.1872 280.574 72.309 280.574 47.1513ZM509.368 2.51666H549.133C550.621 2.51666 551.906 3.05769 552.988 4.13974C554.07 5.22179 554.611 6.50673 554.611 7.99455V139.058C554.611 140.546 554.07 141.831 552.988 142.913C551.906 143.995 550.621 144.536 549.133 144.536H509.368C507.88 144.536 506.595 143.995 505.513 142.913C504.431 141.831 503.89 140.546 503.89 139.058V95.2349H471.022V139.058C471.022 140.546 470.481 141.831 469.399 142.913C468.317 143.995 467.032 144.536 465.545 144.536H425.779C424.291 144.536 423.006 144.062 421.924 143.116C420.842 142.034 420.301 140.681 420.301 139.058V7.99455C420.301 6.50673 420.842 5.22179 421.924 4.13974C423.006 3.05769 424.291 2.51666 425.779 2.51666H465.545C467.032 2.51666 468.317 3.05769 469.399 4.13974C470.481 5.22179 471.022 6.50673 471.022 7.99455V50.6003H503.89V7.99455C503.89 6.50673 504.431 5.22179 505.513 4.13974C506.595 3.05769 507.88 2.51666 509.368 2.51666Z" fill="#1E1E1E"/>
</svg>

<svg width="555" height="147" fill="none" xmlns="http://www.w3.org/2000/svg"><path d="M130.845 137.841c.406.811.609 1.69.609 2.637 0 .947-.474 1.894-1.42 2.841-.812.811-1.826 1.217-3.044 1.217H85.399c-4.193 0-7.1-1.826-8.724-5.478l-17.448-38.751h-8.318v38.751c0 1.488-.541 2.773-1.623 3.855-1.083 1.082-2.367 1.623-3.855 1.623H5.665c-1.487 0-2.772-.541-3.854-1.623-1.082-1.082-1.623-2.367-1.623-3.855V7.995c0-1.488.54-2.773 1.623-3.855 1.082-1.082 2.367-1.623 3.854-1.623H65.72c19.477 0 34.693 4.395 45.649 13.187 10.956 8.657 16.434 21.168 16.434 37.534 0 16.23-7.304 29.012-21.912 38.345l24.955 46.258ZM50.909 40.253V61.76h14.81c2.976 0 5.275-.947 6.898-2.84 1.623-2.03 2.435-4.531 2.435-7.507s-.812-5.546-2.435-7.71c-1.488-2.3-3.787-3.449-6.898-3.449H50.91Zm173.91-37.736h39.765c1.488 0 2.773.54 3.855 1.623 1.082 1.082 1.623 2.367 1.623 3.855v81.56c0 18.935-5.884 33.205-17.651 42.808-11.767 9.468-27.795 14.202-48.084 14.202-20.153 0-36.181-4.734-48.083-14.202-11.768-9.468-17.651-23.738-17.651-42.809V7.994c0-1.487.541-2.772 1.623-3.854 1.082-1.082 2.367-1.623 3.855-1.623h39.765c1.488 0 2.773.54 3.855 1.623 1.082 1.082 1.623 2.367 1.623 3.855v82.168c0 10.415 5.004 15.622 15.013 15.622s15.014-5.207 15.014-15.622V7.995c0-1.488.541-2.773 1.623-3.855 1.082-1.082 2.367-1.623 3.855-1.623Zm55.755 44.634c0-13.796 5.681-25.022 17.042-33.679C309.113 4.816 324.127.488 342.657.488c18.665 0 33.881 4.53 45.649 13.593 11.902 9.062 17.854 18.53 17.854 28.404 0 1.217-.474 2.3-1.421 3.246-.811.812-1.758 1.217-2.84 1.217h-40.577c-3.111 0-5.951-1.15-8.521-3.449-2.57-2.299-6.019-3.449-10.347-3.449-6.492 0-9.739 1.894-9.739 5.681 0 2.029 1.556 3.72 4.667 5.072 3.246 1.353 9.197 2.57 17.854 3.652 20.153 2.57 34.49 7.304 43.011 14.202 8.657 6.763 12.985 17.11 12.985 31.041 0 13.797-6.357 25.09-19.071 33.882-12.579 8.657-29.081 12.985-49.504 12.985-20.424 0-36.452-4.193-48.084-12.579-11.632-8.386-17.448-18.598-17.448-30.636 0-1.217.406-2.231 1.217-3.043.947-.947 2.029-1.42 3.246-1.42h38.549c2.84 0 5.951 1.352 9.332 4.058 3.517 2.705 8.318 4.057 14.405 4.057 10.144 0 15.216-1.893 15.216-5.681 0-2.434-1.826-4.26-5.478-5.477-3.651-1.353-10.55-2.706-20.694-4.058-34.896-4.599-52.344-19.477-52.344-44.635ZM509.368 2.517h39.765c1.488 0 2.773.54 3.855 1.623 1.082 1.082 1.623 2.367 1.623 3.855v131.063c0 1.488-.541 2.773-1.623 3.855-1.082 1.082-2.367 1.623-3.855 1.623h-39.765c-1.488 0-2.773-.541-3.855-1.623-1.082-1.082-1.623-2.367-1.623-3.855V95.235h-32.868v43.823c0 1.488-.541 2.773-1.623 3.855-1.082 1.082-2.367 1.623-3.854 1.623h-39.766c-1.488 0-2.773-.474-3.855-1.42-1.082-1.082-1.623-2.435-1.623-4.058V7.995c0-1.488.541-2.773 1.623-3.855 1.082-1.082 2.367-1.623 3.855-1.623h39.766c1.487 0 2.772.54 3.854 1.623 1.082 1.082 1.623 2.367 1.623 3.855V50.6h32.868V7.995c0-1.488.541-2.773 1.623-3.855 1.082-1.082 2.367-1.623 3.855-1.623Z" fill="#1E1E1E"/></svg>
